X:1
T:Zwölf Gesänge
T:Ein recht Gemüth
T:8. Ein recht Gemüth
T:Louise Reichardt
T:Achim von Arnim
T:Zwölf Gesänge
T:OpenScore (CC0)
C:Louise Reichardt
Z:Achim von Arnim
Z:OpenScore (CC0)
%%score 1 { 2 | 3 }
L:1/8
Q:1/4=120
M:4/4
K:F
V:1 treble nm="Voice"
V:2 treble nm="Piano"
V:3 bass 
V:1
"^Lebhaft" z A A B |:[Q:1/4=120] c3 c c c c f | e2 B2 z B A B | c3 c c c c f | e2 B2 z B B A | %5
w: Ein recht Ge-|müth springt mit den Nach- ti-|gal- len auf man- che|Blüth' und freu- et sich an|al- len; von ei- nem|
w: |||||
 A3 A d f e d | d2 ^c2 z c c c | d2 d2 d d[Q:1/4=117] B G |1,2 %8
w: Zweig will man- che ein- zeln|schal- len, nicht all zu-|gleich wie Saat der Mens- chen|
w: |||
[Q:1/4=113] (c2 cE) !breath!!fermata!F[Q:1/4=117] A A B :|3 %9
w: wal- * * len. ~2.~Doch, was ver–|
w: |
[Q:1/4=110] (c2 c[Q:1/4=90]E)"^Schluss." !fermata!F |] %10
w: |
w: lie- * * ber.|
V:2
!mf! z4 |:!mf! C/F/A/F/ C/F/A/F/ C/F/A/F/ C/F/A/F/ | C/=E/B/E/ C/E/B/E/ C/E/B/E/ C/E/B/E/ | %3
 C/F/A/F/!<(! C/F/A/F/ C/F/A/F/ C/F/A/F/!<)! |!f! C/=E/B/E/ C/!mf!E/B/E/!mp! C/E/!p!B/E/ E/G/A/G/ | %5
 D/F/A/F/ D/F/A/F/ D/F/A/F/ D/F/A/F/ | E/G/A/G/ E/G/A/G/!mp! E/!<(!G/A/G/ E/G/A/G/ | %7
 D/F/A/F/ D/^F/A/F/!<)!!f! D/G/B/G/ D/G/B/G/ |1,2 %8
 =C/F/A/F/ C/E/G/E/ !fermata!C/!mf!F/A/F/ C/F/A/F/ :|3!f! =C/F/A/F/ C/E/G/E/ !fermata!F |] %10
V:3
 z4 |: [F,,F,]4 [F,,F,]4 | [C,,C,]4 [C,,C,]4 | [F,,F,]4 [F,,F,]4 | [C,,C,]4 z2 [^C,,^C,]2 | %5
 [D,,D,]4 [D,,D,]4 | [A,,,A,,]4 [A,,,A,,]4 | D,2 =C2 B,2 G,2 |1,2 C,2 C,2 [F,,F,]4 :|3 %9
 C,2 C,2 !fermata![F,,F,] |] %10

